X:149
T:Doodle Let Me Go
M:6/8
L:1/8
S:Hugill, Shanties of the Seven Seas
K:D Mix % 1 Sharp
D|\
D2E F2G|A2B c2c|B2A G2F|G3-G2B|
A3- A2F|D2F A3 |G2F E2E|D3-D3 |
D2E F2G|A2B c3 |B2A G2F|G3-G2B|
A3- A2F|D2F A3 |G2F E2E|D3-D3 ||
